X:1
T:William Billings
T:Rutland
%%score [ 1 2 3 4 ]
L:1/8
M:4/4
K:C
V:1 treble nm="Soprano" snm="S"
V:2 alto nm="Alto" snm="A"
V:3 treble-8 nm="Tenor" snm="T"
V:4 bass nm="Bass" snm="B"
V:1
 z8 | z4 A4 | A2 A2 G2 G2 | E2 E2 C4 | E2 E2 A4- | A8- | A8- | A8 | A4 A4 | E8 | ^F4 F4 | ^F8 | %12
w: |my|flesh shall slum- ber|in the Ground|in the Grou|||nd|in the|Ground|in the|Ground|
 G4 F4 | D8 | D4 D4 | E8 | E4 E4 | G8- | G8- | G8- | G8 | z4 A4 | e2 e2 c2 (dc) | B4 A4 | A6 z2 | %25
w: in the|Gound|in the|Ground|in the|Grou|||nd|||||
 z8 | z4 B4 | (c3 B A2) A2 | B6 B2 | (B2 c2 d2) G2 | G8- | G6 G2 | (cd) e2 e2 A2 | A4 A4 | %34
w: |then|burst * * the|Chains with|sweet * * sur-|prize|* and|||
[K:F] A6 A2 | A6 G2 | A4 (B2 A2) | (B2 cd cB) A2 | A8 |[M:3/4] z6 | z2 z2 A2 | A4 G2 | A4 G2 | %43
w: ||||||this|life's a|dream an|
 GG G2 G2 | (A>B c2) c2 | (d2 c2) B2 | (A2 B2) c2 ||[K:C][M:4/4] c8 | z8 | z8 | z8 | %51
w: emp- ty show but||||||||
 (c3 d ed)(cd) | e8 | (B3 c de) f2 | (e3 d c4) | (e3 f gf)(ed) | (c4 B4) | d4 (d2 ef) | (e3 d c4) | %59
w: ||and * * * sin-|cere * *|* and * * sin *|cere *|and sin * *|cere * *|
 (e2 dc) (d2 cB) | c8 | c2 cd c2 (cd) | (ed)(cB) A4 | A2 GA B2 c2 | (fe)(dc) B4 | (cd)ee A2 B2 | %66
w: and * * sin * *|cere||||||
 c2 c2 c4 | (cd)ef g2 c2 | c2 e2 d4- | d4 (ef)gd | e2 f2 (ge) f2 | f8 | z8 | e8 | z8 | c8 | z8 | %77
w: |||||||||||
 e8 |] %78
w: |
V:2
 z8 | z8 | z8 | C4 A,2 A,2 | (C3 B, C2) C2 | C4 C4 | C8- | C8- | C8 | C4 C4 | D8- | D8 | E4 D4 | %13
w: |||my flesh shall|slum * * ber|in the|Grou||nd|in the|Ground||in the|
 B,8 | B,4 B,4 | C8 | C4 C4 | E8- | E8- | E8- | E8 | z4 E4 | G2 G2 A2 A2 | G4 E4 | ^F6 z2 | z4 G4 | %26
w: Ground|in the|Ground|in the|Grou|||nd|||||then|
 (G2 A2 G2) (GF) | E6 (EF) | (G3 A G2) G2 | G6 D2 | (E3 F E2) F2 | E6 (EF) | G2 G2 G2 F2 | F4 E4 | %34
w: burst * * the *|Chains with *|sweet * * sur-|pirze with|sweet * * sur-|prize and *|||
[K:F] F6 E2 | (F3 E D2) C2 | D4 (E2 F2) | (G2 A2) A4 | ^F8 |[M:3/4] z2 z2 E2 | F4 E2 | D4 G2 | %42
w: ||||||||
 F4 D2 | E4 E2 | F4 G2 | F4 D2 | (F>E D2) F2 ||[K:C][M:4/4] E8 | z4 D4 | (E3 D E2) G2 | G4 A4 | %51
w: |||||||||
 (G3 F E2) G2 | G8 | G4 G2 G2 | G2 G2 A2 F2 | G2 G2 G2 G2 | G2 F2 (G2 E2) | (F2 GA) G4- | G4 z4 | %59
w: ||hath joys sub-|stan- tial joys sub-|stan- tial- joys sub-|stan- tial and *|sin * * cere||
 (E2 FG) (F2 GA) | G8 | (GF)ED (CD)(EF) | G2 A2 A4 | F2 ED E2 E2 | F2 G2 G4 | G2 GF E2 G2 | %66
w: and * * sin * *|cere||||||
 A2 A2 A4 | (EF)GA G2 A2 | G2 c2 B4- | B4 c2 BA | G2 (G>B) (c>B) A2 | A8 | z8 | G8 | z8 | E8 | z8 | %77
w: |||||||||||
 G8 |] %78
w: |
V:3
 z8 | z8 | z8 | A4 E2 E2 | (A3 ^G A2) E2 | A4 F4 | E8- | E8 | E4 E4 | A8- | A8- | A8 | c4 A4 | %13
w: |||my flesh shall|slum * * ber|in the|Grou|nd|in the|Grou||nd|in the|
 G8- | G8- | G8 | G4 G4 | c8- | c8 | c4 c4 | B8 | z4 c4 | B2 B2 A2 A2 | e4 ^c4 | d6 z2 | z8 | z8 | %27
w: Grou||nd|in the|Grou|nd|in the|Ground|till|the last Trum- pets|joy- ful|sound|||
 z4 c4 | (e>fed e2) e2 | d2 (c>d B2) B2 | (c3 d c2) B2 | c6 (cd) | e2 (ed) c2 A2 | d4 ^c4 | %34
w: then|burst * * * * the|Chains * * * with|sweet * * sur-|prize and *|in my * sav- iour's|I- mage-|
[K:F] d6 c2 | (d3 e d2) e2 | f4 (e2 d2) | (e2 f2 ed) ^c2 | d8 |[M:3/4] z2 z2 A2 | d4 e2 | f4 e2 | %42
w: rise and|in * * my|sav- iour's *|i * * * mage|rise|this|life's a|dream an|
 (d2 c2) =B2 | c4 c2 | A4 G2 | A4 d2 | (c2 B2) A2 ||[K:C][M:4/4] G8 | z4 G4 | (c3 B c2) d2 | %50
w: emp * ty|show but|the bright|world to|which * I|go|hath|joys * * sub-|
 (e3 d e2) d2 | (e2 f2 gf)(ed) | (c4 B4) | (d3 e f)e(dc) | (B4 A2) z2 | (c3 d ed)(cB) | (A4 G4) | %57
w: stan * * tial|and * * sin * *|cere *|and * * * sin *|cere *|and * * * sin *|cere *|
 (A2 Bc d2) (cd) | c8 | (c2 de) (d2 ef) | e8 | (ed)cB A2 G2 | c2 c2 c4 | (dc)BA G2 G2 | d2 d2 d4 | %65
w: and * * * sin *|cere|and * * sin * *|cere|when * shall I wake and|find me there|when * shall I wake and|find me there|
 (ed)cB c2 c2 | f2 f2 f4 | (gf)ed e2 c2 | e2 g2 g4- | g4 (gf)ef | g2 f2 e2 d2 | c8 | z8 | c8 | z8 | %75
w: when * shall I wake and|find me there|when * shall I wake and|find me there|* when * shall I|walke and find me|there||there||
 G8 | z8 | c8 |] %78
w: there||there|
V:4
 A,4 E,2 E,2 | (F,3 E, D,2) C,2 | D,4 E,4 | A,,8- | A,,8- | A,,8- | A,,8 | A,,4 A,,4 | A,,8 | %9
w: my flesh shall|slum * * ber|in the|Grou|||nd|in the|Ground|
 A,,4 A,,4 | D,8- | D,8 | C,4 D,4 | G,,8 | G,,4 G,,4 | C,8- | C,8- | C,8- | C,8 | C,4 C,4 | E,8 | %21
w: in the|Grou-|nd|in the|Ground|in the|Grou|||nd|in the|Ground|
 z4 A,4 | E,2 E,2 F,2 D,2 | E,4 A,4 | D,6 E,2 | (A,>B,A,B, C2) (B,A,) | (G,2 F,>G, E,2) E,2 | %27
w: |||* then|Burst * * * * the *|Chains * * * with|
 (A,3 B, A,2) A,,2 | E,6 (E,F,) | (G,3 A, G,2) G,,2 | C,8- | C,6 C,2 | C,2 (C,D,) E,2 F,2 | %33
w: sweet * * sur-|prize with *|sweet * * sur-|priez|* and|in * * * *|
 D,4 [A,,A,]4 |[K:F] D,6 A,,2 | (D,3 E, F,2) E,2 | D,4 (G,2 F,2) | (E,2 D,2 A,2) A,,2 | D,8 | %39
w: ||||||
[M:3/4] z4 z2 | z2 z2 A,,2 | D,4 E,2 | F,4 G,2 | C,C, C,2 C,2 | F,4 E,2 | (D,>E, F,2) G,2 | %46
w: |this|life's a|dream an|emp- ty show but|||
 (A,2 G,2) F,2 ||[K:C][M:4/4] C,8 | z8 | z4 z2 G,2 | (C3 B, A,G,) F,2 | (E,3 D, C,2) C,2 | %52
w: |||hath|joys * * * sub-|stan * * tial|
 C,4 E,4 | G,8 | E,4 F,4 | E,4 C,2 E,2 | (F,4 E,4) | D,4 G,4 | C,4 F,4 | E,4 D,4 | C,8 | %61
w: and sin-|cere|hath joys|sub- stan- tial|and *|sin- cere|and sin|cere sin-|cere|
 C,2 C,C, F,2 E,2 | C,2 F,2 F,4 | D,2 G,F, E,2 C,2 | D,2 G,2 G,4 | (CB,)A,G, A,2 E,2 | %66
w: |||||
 F,2 F,2 F,4 | (E,D,)C,F, E,2 F,2 | E,2 C,2 G,4- | G,4 C2 G,F, | E,2 D,2 C,2 (D,>E,) | F,8 | z8 | %73
w: |||||||
 C,8 | z8 | C,8 | z8 | C,8 |] %78
w: |||||

